COLOR/apps 16/16/bluetooth.svg

<svg height="16" width="16" xmlns="http://www.w3.org/2000/svg" xmlns:xlink="http://www.w3.org/1999/xlink"><linearGradient id="a" gradientTransform="matrix(0 -.0386186 .03904659 0 -4.528505 17.54545)" gradientUnits="userSpaceOnUse" x1="441.37933" x2="52.9655" y1="240.28154" y2="401.42957"><stop offset="0" stop-color="#5884f4"/><stop offset="1" stop-color="#80a3fa"/></linearGradient><path d="m4.8544951.50000071c-3.04166 0-3.36894.30898999-3.35403 3.32330989v4.1766897 4.1766797c-.0149 3.01433.31237 3.32332 3.35403 3.32332h6.2914609c3.04167 0 3.35404-.30895 3.35404-3.32332v-4.1766797-4.1766897c0-3.0143599-.31238-3.32330989-3.35404-3.32330989z" fill="url(#a)"/><path d="m5.9870374 9.99988 3.9999997-3.4999994-1.9999997-2v7.4999994l1.9999997-2-3.9999997-3.4999994" fill="none" stroke="#fff" stroke-linecap="square"/><path d="m4.8554688.5c-3.04166 0-3.3703788.30989885-3.3554688 3.3242188v.5c-.01491-3.01432.3138088-3.3242188 3.3554688-3.3242188h6.2910152c3.04166 0 3.353516.3098588 3.353516 3.3242188v-.5c0-3.01435995-.311856-3.3242188-3.353516-3.3242188z" fill="#fff" opacity=".3"/><path d="m11.144068 15.5c3.04166 0 3.370379-.309899 3.355469-3.324219v-.5c.01491 3.01432-.313809 3.324219-3.355469 3.324219h-6.2910154c-3.04166 0-3.353516-.309859-3.353516-3.324219v.5c0 3.01436.311856 3.324219 3.353516 3.324219z" opacity=".2"/></svg>

<?xml version="1.0" encoding="UTF-8" standalone="no"?>
<svg
   xmlns:dc="http://purl.org/dc/elements/1.1/"
   xmlns:cc="http://creativecommons.org/ns#"
   xmlns:rdf="http://www.w3.org/1999/02/22-rdf-syntax-ns#"
   xmlns:svg="http://www.w3.org/2000/svg"
   xmlns="http://www.w3.org/2000/svg"
   xmlns:xlink="http://www.w3.org/1999/xlink"
   xmlns:sodipodi="http://sodipodi.sourceforge.net/DTD/sodipodi-0.dtd"
   xmlns:inkscape="http://www.inkscape.org/namespaces/inkscape"
   height="16"
   width="16"
   version="1.1"
   id="svg10"
   sodipodi:docname="bluetooth.svg"
   inkscape:version="0.92.5 (2060ec1f9f, 2020-04-08)">
  <metadata
     id="metadata16">
    <rdf:RDF>
      <cc:Work
         rdf:about="">
        <dc:format>image/svg+xml</dc:format>
        <dc:type
           rdf:resource="http://purl.org/dc/dcmitype/StillImage" />
      </cc:Work>
    </rdf:RDF>
  </metadata>
  <defs
     id="defs14">
    <clipPath
       clipPathUnits="userSpaceOnUse"
       id="clipPath983-0">
      <path
         sodipodi:nodetypes="scccssscsss"
         inkscape:connector-curvature="0"
         id="path985-2"
         d="m 325.09646,237 c -2.80769,0 -3.10979,0.28839 -3.09603,3.10176 V 244 v 3.89824 c -0.0138,2.81337 0.28834,3.10176 3.09603,3.10176 h 5.8075 C 333.71166,251 334,250.71165 334,247.89824 V 244 240.10176 C 334,237.28836 333.71165,237 330.90396,237 Z"
         style="color:#000000;display:inline;overflow:visible;visibility:visible;opacity:1;fill:#46a926;fill-opacity:1;fill-rule:nonzero;stroke:none;stroke-width:2;stroke-miterlimit:4;stroke-dasharray:none;stroke-opacity:1;marker:none;enable-background:accumulate" />
    </clipPath>
    <linearGradient
       inkscape:collect="always"
       xlink:href="#linearGradient4338-7"
       id="linearGradient920"
       gradientUnits="userSpaceOnUse"
       gradientTransform="matrix(0,-0.0386186,0.03904659,0,-4.5285049,17.54545)"
       x1="441.37933"
       y1="240.28154"
       x2="52.9655"
       y2="401.42957" />
    <linearGradient
       inkscape:collect="always"
       id="linearGradient4338-7">
      <stop
         id="stop4342-6"
         offset="0"
         style="stop-color:#5884f4;stop-opacity:1" />
      <stop
         id="stop4340-2"
         offset="1"
         style="stop-color:#80a3fa;stop-opacity:1" />
    </linearGradient>
  </defs>
  <sodipodi:namedview
     pagecolor="#ffffff"
     bordercolor="#666666"
     borderopacity="1"
     objecttolerance="10"
     gridtolerance="10"
     guidetolerance="10"
     inkscape:pageopacity="0"
     inkscape:pageshadow="2"
     inkscape:window-width="1920"
     inkscape:window-height="1016"
     id="namedview12"
     showgrid="false"
     inkscape:zoom="14.75"
     inkscape:cx="8"
     inkscape:cy="8"
     inkscape:window-x="0"
     inkscape:window-y="27"
     inkscape:window-maximized="1"
     inkscape:current-layer="svg10" />
  <path
     style="color:#000000;display:inline;overflow:visible;visibility:visible;fill:url(#linearGradient920);fill-opacity:1;fill-rule:nonzero;stroke:none;stroke-width:1;marker:none;enable-background:accumulate"
     d="m 4.8544951,0.50000071 c -3.04166,0 -3.36894,0.30898999 -3.35403,3.32330989 V 8.0000003 12.17668 c -0.0149,3.01433 0.31237,3.32332 3.35403,3.32332 h 6.2914609 c 3.04167,0 3.35404,-0.30895 3.35404,-3.32332 V 8.0000003 3.8233106 c 0,-3.0143599 -0.31238,-3.32330989 -3.35404,-3.32330989 z"
     id="path918"
     inkscape:connector-curvature="0"
     sodipodi:nodetypes="scccssscsss" />
  <path
     sodipodi:nodetypes="cccccc"
     style="display:inline;fill:none;fill-rule:evenodd;stroke:#ffffff;stroke-width:1;stroke-linecap:square;stroke-linejoin:miter;stroke-miterlimit:4;stroke-dasharray:none;stroke-opacity:1;enable-background:new"
     d="m 5.9870374,9.99988 3.9999997,-3.4999994 -1.9999997,-2 V 11.99988 l 1.9999997,-2 -3.9999997,-3.4999994"
     id="path997-5"
     inkscape:connector-curvature="0" />
  <path
     style="color:#000000;display:inline;overflow:visible;visibility:visible;fill:#ffffff;fill-opacity:1;fill-rule:nonzero;stroke:none;stroke-width:1;marker:none;enable-background:accumulate;opacity:0.3"
     d="M 4.8554688 0.5 C 1.8138088 0.5 1.48509 0.80989885 1.5 3.8242188 L 1.5 4.3242188 C 1.48509 1.3098988 1.8138088 1 4.8554688 1 L 11.146484 1 C 14.188144 1 14.5 1.3098588 14.5 4.3242188 L 14.5 3.8242188 C 14.5 0.80985885 14.188144 0.5 11.146484 0.5 L 4.8554688 0.5 z "
     id="path863" />
  <path
     id="path872"
     d="m 11.144068,15.5 c 3.04166,0 3.370379,-0.309899 3.355469,-3.324219 v -0.5 C 14.514447,14.690101 14.185728,15 11.144068,15 H 4.8530526 c -3.04166,0 -3.353516,-0.309859 -3.353516,-3.324219 v 0.5 c 0,3.01436 0.311856,3.324219 3.353516,3.324219 z"
     style="color:#000000;display:inline;overflow:visible;visibility:visible;opacity:0.2;fill:#000000;fill-opacity:1;fill-rule:nonzero;stroke:none;stroke-width:1;marker:none;enable-background:accumulate"
     inkscape:connector-curvature="0" />
</svg>
